icons/animal_chicken.svg

<svg width="48" height="48" viewBox="0 0 48 48" fill="none" xmlns="http://www.w3.org/2000/svg">
<path d="M14 14C14.5522 14 15 13.5522 15 13C15 12.4477 14.5522 12 14 12C13.4477 12 13 12.4477 13 13C13 13.5522 13.4477 14 14 14Z" fill="black"/>
<path fill-rule="evenodd" clip-rule="evenodd" d="M15.0857 5.99995C16.3457 4.74002 18.5 5.63235 18.5 7.41417V8.99995H20.0857C21.8675 8.99995 22.7599 11.1542 21.5 12.4142L19.7071 14.2071C19.6948 14.2193 19.6823 14.2312 19.6696 14.2427L23.1263 20.0903C23.9634 21.5063 25.582 22.2655 27.2059 22.0039L39.7851 19.9772C41.4167 19.7144 42.5267 21.5857 41.5136 22.8914C40.5433 24.1421 40.0554 25.7414 39.702 27.4918C38.3839 34.0191 32.8537 39.0512 26 39.8799V42H28.5V44H19V42H24L23.9999 40C18.5861 40 13.7903 37.3931 10.893 33.3922C8.56856 30.1823 8.94669 26.057 9.88733 22.625L10.3821 20.8198C10.6351 19.8968 10.6948 18.9365 10.5631 17.998C10.5422 17.9993 10.5212 18 10.5 18H7.91417C6.13236 18 5.24002 15.8457 6.49995 14.5857L15.0857 5.99995ZM20.0857 11L18.6195 12.4662L17.8908 11.2334C17.7967 11.0743 17.6938 10.9223 17.5828 10.7778C17.8575 10.9198 18.1694 11 18.5 11H20.0857ZM16.5 8.99995C16.5 9.33427 16.582 9.64943 16.727 9.9264C16.6577 9.87372 16.5869 9.82309 16.5147 9.77454C16.0096 9.43472 15.438 9.19737 14.8328 9.08131L16.5 7.41417L16.5 8.99995ZM7.91417 16L9.50857 14.4055C9.54922 14.6136 9.605 14.8222 9.67671 15.0301L10.0111 16H7.91417ZM11.5675 14.3781C10.997 12.7237 12.226 11 13.9759 11C14.8768 11 15.7107 11.4757 16.1691 12.2512L21.4046 21.108C22.6602 23.232 25.0881 24.3709 27.524 23.9784L39.6721 22.0212C38.59 23.5778 38.0831 25.4042 37.7415 27.096C37.4682 28.4497 36.9841 29.7327 36.323 30.9113C36.2314 30.9694 36.1477 31.0436 36.0763 31.1333C34.1831 33.5122 31.3781 35 28.2637 35C22.6539 35 18 30.1357 18 24C18 23.4477 17.5522 23 17 23C16.4477 23 16 23.4477 16 24C16 31.1191 21.4319 37 28.2637 37C28.6633 37 29.0583 36.9797 29.4478 36.9402C27.775 37.6222 25.9346 38 23.9999 38C19.2373 38 15.0399 35.7087 12.5129 32.2191C10.7473 29.781 10.9136 26.447 11.8162 23.1536L12.311 21.3484C12.7899 19.601 12.7301 17.7498 12.1395 16.0369L11.5675 14.3781Z" fill="black"/>
</svg>

<svg
  xmlns="http://www.w3.org/2000/svg"
  width="24"
  height="24"
  viewBox="0 0 24 24"
  fill="none"
  stroke="currentColor"
  stroke-width="2"
  stroke-linecap="round"
  stroke-linejoin="round"
>
  <path d="M14 14a1 1 0 1 0 0-2 1 1 0 0 0 0 2" />
  <path
    fill-rule="evenodd"
    d="M15.086 6c1.26-1.26 3.414-.368 3.414 1.414V9h1.586c1.782 0 2.674 2.154 1.414 3.414l-1.793 1.793-.037.036 3.456 5.847a4 4 0 0 0 4.08 1.914l12.58-2.027c1.63-.263 2.74 1.609 1.728 2.914-.97 1.251-1.459 2.85-1.812 4.6C38.384 34.02 32.854 39.052 26 39.88V42h2.5v2H19v-2h5v-2c-5.414 0-10.21-2.607-13.107-6.608-2.324-3.21-1.946-7.335-1.006-10.767l.495-1.805a7 7 0 0 0 .181-2.822L10.5 18H7.914C6.132 18 5.24 15.846 6.5 14.586zm5 5-1.466 1.466-.73-1.233a5 5 0 0 0-.307-.455c.275.142.586.222.917.222zM16.5 9c0 .334.082.65.227.926a4.548 4.548 0 0 0-1.894-.845L16.5 7.414zm-8.586 7 1.595-1.594q.06.312.168.624l.334.97zm3.654-1.622a2.548 2.548 0 0 1 4.601-2.127l5.236 8.857a6 6 0 0 0 6.119 2.87l12.148-1.957c-1.082 1.557-1.589 3.383-1.93 5.075a13.1 13.1 0 0 1-1.419 3.815 1 1 0 0 0-.247.222C34.183 33.513 31.378 35 28.264 35 22.654 35 18 30.136 18 24a1 1 0 0 0-2 0c0 7.12 5.432 13 12.264 13q.6 0 1.184-.06A14.4 14.4 0 0 1 24 38c-4.763 0-8.96-2.291-11.487-5.78-1.766-2.439-1.6-5.773-.697-9.066l.495-1.806a9 9 0 0 0-.171-5.311z"
    clip-rule="evenodd"
  />
</svg>
